X: 6157
T: Captain O'Kane
R: waltz
M: 3/4
K: Adorian
|:AG|E2A3B|c4BA|d3{A}B{c}B A|{F}G4AB|
g3ae2|dc3B2|BA GE DE|{G}A5:|
ABc2BA|B^cd2|ABc2B^c|de fg3|
e2ABc2|d2e2{g}a2|ge de{g}a2|{g}a2bc'3|
a2{f}g2Ted|c2{A}BB AB|g2G4|(3efg aTa (3ged|
c2{A}B2BA|GE D E2|A5|

